brandFactory_export/1.Light/Mano derecha_1Light.svg

<?xml version="1.0" encoding="UTF-8"?>
<svg width="24px" height="24px" viewBox="0 0 24 24" version="1.1" xmlns="http://www.w3.org/2000/svg" xmlns:xlink="http://www.w3.org/1999/xlink">
    <title>1.Light/Mano derecha_1Light</title>
    <g id="Symbols" stroke="none" stroke-width="1" fill="none" fill-rule="evenodd">
        <g id="1.Light/Mano-derecha_1Light" fill="#5CB615" fill-rule="nonzero">
            <path d="M3.80168067,20.7294118 C2.90420168,20.7294118 2.20504202,20.497479 1.72773109,20.0336134 C1.25042017,19.5697479 0.98487395,18.8134454 0.98487395,17.8991597 L0.98487395,8.55462185 C0.98487395,8.32605042 1.18319328,8.14453782 1.68739496,7.91260504 C2.07058824,7.73445378 3.34117647,7.11260504 4.68235294,6.45042017 C6.9210084,5.34789916 9.70756303,3.97647059 11.4453782,3.16302521 C12.0470588,2.88067227 12.6319328,2.96134454 12.9647059,3.37815126 C13.1361345,3.58991597 13.2268908,3.85210084 13.2268908,4.12773109 C13.2268908,4.42689076 13.1193277,4.72605042 12.9210084,4.97142857 C12.6722689,5.28403361 12.2957983,5.57647059 11.6638655,5.94621849 C11.2840336,6.16806723 11.0991597,6.61848739 11.2168067,7.04537815 C11.3344538,7.46890756 11.7243697,7.76470588 12.1680672,7.76470588 L21.0184874,7.76470588 C22.4705882,7.85882353 22.6352941,8.7092437 22.6352941,9.34453782 C22.6352941,10.3798319 22.0806723,10.9277311 21.0285714,10.9277311 L17.5462185,10.9277311 C17.005042,10.9277311 16.5647059,11.3613445 16.5613445,11.902521 C16.5613445,11.989916 16.5747899,12.0806723 16.5983193,12.1647059 C16.6453782,12.3294118 16.6689076,12.5176471 16.6689076,12.7226891 C16.6689076,13.4756303 16.3630252,13.9462185 15.7579832,14.1176471 C15.3378151,14.2352941 15.0453782,14.6184874 15.0420168,15.0554622 C15.0420168,15.1596639 15.0588235,15.2605042 15.092437,15.3647059 C15.1529412,15.5462185 15.1831933,15.7579832 15.1831933,15.989916 C15.1831933,16.7462185 14.8739496,17.2168067 14.2621849,17.3882353 C14.0033613,17.4588235 13.7848739,17.6336134 13.6571429,17.8689076 C13.5294118,18.1042017 13.5058824,18.3798319 13.589916,18.6352941 C13.6504202,18.8168067 13.6806723,19.0285714 13.6806723,19.2571429 C13.6806723,20.2319328 13.1798319,20.7260504 12.1915966,20.7260504 L3.80168067,20.7294118 Z M14.6722689,19.2605042 C14.6722689,18.9210084 14.6252101,18.6084034 14.5310924,18.3327731 C15.5596639,18.0470588 16.1714286,17.2033613 16.1714286,15.9966387 C16.1714286,15.6571429 16.1210084,15.3445378 16.0302521,15.0655462 C17.0487395,14.7764706 17.6537815,13.9361345 17.6537815,12.7327731 C17.6537815,12.4369748 17.6168067,12.1613445 17.5462185,11.912605 L21.0285714,11.912605 C22.6285714,11.912605 23.6235294,10.9310924 23.6235294,9.3512605 C23.6235294,7.83193277 22.6991597,6.90084034 21.0823529,6.79663866 L21.0319328,6.79663866 L12.1680672,6.78991597 C12.8605042,6.38319328 13.3445378,6.01680672 13.6941176,5.57983193 C14.0369748,5.14621849 14.2117647,4.63529412 14.2117647,4.13109244 C14.2117647,3.64705882 14.0537815,3.16638655 13.7344538,2.77310924 C13.1092437,1.99327731 12.0436975,1.79831933 11.0218487,2.28235294 C9.28403361,3.09915966 6.4907563,4.47394958 4.24537815,5.57647059 C2.84705882,6.26554622 1.64033613,6.8605042 1.27394958,7.02857143 C0.890756303,7.20336134 0,7.61680672 0,8.55462185 L0,17.8991597 C0,19.0789916 0.369747899,20.0840336 1.03865546,20.7327731 C1.70420168,21.3781513 2.63529412,21.7042017 3.79831933,21.7042017 L12.194958,21.7042017 C13.7243697,21.7042017 14.6722689,20.7697479 14.6722689,19.2605042 Z" id="Mano-derecha_1Light"></path>
        </g>
    </g>
</svg>

<svg width="24" height="24" viewBox="0 0 24 24" xmlns="http://www.w3.org/2000/svg"><path d="M3.802 20.73c-.898 0-1.597-.233-2.074-.696-.478-.464-.743-1.22-.743-2.135V8.555c0-.229.198-.41.702-.642.384-.179 1.654-.8 2.995-1.463 2.239-1.102 5.026-2.474 6.763-3.287.602-.282 1.187-.202 1.52.215.171.212.262.474.262.75 0 .299-.108.598-.306.843-.249.313-.625.605-1.257.975a.973.973 0 00-.447 1.1c.117.423.507.719.951.719h8.85c1.453.094 1.617.944 1.617 1.58 0 1.035-.554 1.583-1.606 1.583h-3.483a.982.982 0 00-.985.975c0 .087.014.178.037.262.047.164.07.353.07.558 0 .753-.305 1.223-.91 1.395a.982.982 0 00-.716.937c0 .105.017.206.05.31.06.181.091.393.091.625 0 .756-.31 1.227-.92 1.398a.985.985 0 00-.606.48.967.967 0 00-.067.767c.06.182.09.394.09.622 0 .975-.5 1.47-1.488 1.47l-8.39.002zm10.87-1.47c0-.339-.047-.652-.14-.927 1.028-.286 1.64-1.13 1.64-2.336 0-.34-.051-.652-.142-.931 1.019-.29 1.624-1.13 1.624-2.333 0-.296-.037-.572-.108-.82h3.483c1.6 0 2.595-.982 2.595-2.562 0-1.52-.925-2.45-2.542-2.554h-.05l-8.864-.007c.693-.407 1.177-.773 1.526-1.21a2.34 2.34 0 00.518-1.449c0-.484-.158-.965-.478-1.358-.625-.78-1.69-.975-2.712-.49-1.738.816-4.531 2.19-6.777 3.293-1.398.69-2.605 1.285-2.971 1.453C.89 7.203 0 7.617 0 8.555v9.344c0 1.18.37 2.185 1.039 2.834.665.645 1.596.971 2.76.971h8.396c1.53 0 2.477-.934 2.477-2.443z" fill="#5CB615" fill-rule="nonzero"/></svg>
